!!!!SEGMENT: pl-wn--mus-iii-162-158-cim_wieniawski-henryk--souvenir-de-posen-mazurka-op-3.krn
!!!cenid: 18xx:3796
!!!COM: Wieniawski, Henryk
!!!COM-rismID: pe137176
!!!CDT: 1835/07/10-1880/03/31
!!!CNT:
!!!OTL: Souvenir de Posen/Mazurka op. 3
!!!PDT:
!!!AGN:
!!!SMS-siglum: PL-Wn
!!!SMS-shelfmark: Mus.III.162.158 Cim.
!!!SMS-shelfwork: W
!!!SMS-variant:
!!!SMS-altvar:
!!!NIFC-rismSourceID:
!!!NIFC-rismChildID:
!!!NIFC-islandoraID: none
!!!URL-pdf-islandora:
!!!URL-scan: https://polona.pl/item/souvenir-de-posen-mazourka-caracteristique-pour-le-violon-avec-accompagnement-de,MjQwNTYxNzY/0 @EN{Scan on Polona} @PL{Skany w portalu Polona}
!!!ONB-nifc:
!!!AIN: 1 piano 1 violn
!!!key: d
!!!OMD: SOUVENIR DE POSEN. \nMAZOURKA - CARACTERISTIQUE \npar \nH. WIENIAWSKI. \n Op.3
**kern	**kern	**dynam	**kern	**fing	**dynam
!	!	!	!LO:MO:mod=*	!	!
*	*	*	*scale:70%	*	*
*part2	*part2	*part2	*part1	*part1	*part1
*staff3	*staff2	*	*staff1	*	*
*I"PIANO.	*I"PIANO.	*	*I"VIOLON.	*	*
*mI"Pianoforte	*mI"Pianoforte	*	*mI"Violino	*	*
*I'	*I'	*	*I'	*	*
*mI'pf	*mI'pf	*	*mI'vn	*	*
*Ipiano	*Ipiano	*	*Ivioln	*	*
*ICklav	*ICklav	*	*ICstr	*	*
*IGacmp	*IGacmp	*	*IGsolo	*	*
*clefF4	*clefG2	*	*clefG2	*	*
*k[b-]	*k[b-]	*	*k[b-]	*	*
*d:	*d:	*	*d:	*	*
*M3/4	*M3/4	*	*M3/4	*	*
=1	=1	=1	=1	=1	=1
*xywh-#3:547,1500,1996,527	*xywh-#3:547,1500,1996,527	*	*xywh-#3:440,474,2285,1056	*	*
!	!LO:TX:a:B:t=Andantino.	!	!LO:TX:a:B:t=Andantino.	!	!
4AA 4DD\	4d 4A< 4F</	p	2.r	.	.
2AA 2DD^<\	2d^> 2G< 2F#X</	.	.	.	.
=2	=2	=2	=2	=2	=2
4AA 4DD\	4d 4A< 4F</	.	2.r	.	.
2AA 2DD^<\	2d^> 2G< 2F#X</	.	.	.	.
=3	=3	=3	=3	=3	=3
4AA 4DD\	4d 4A< 4F</	.	2.r	.	.
2AA 2DD^<\	2d^> 2G< 2F#X<^/	.	.	.	.
=4	=4	=4	=4	=4	=4
4AA 4DD\	4d 4A< 4F</	.	2.r	.	.
2AA 2DD^<\	2d^> 2G< 2F#X<^/	.	.	.	.
!!LO:LB:g=original
=5	=5	=5	=5	=5	=5
*xywh-#3:470,2210,2119,481	*xywh-#3:470,2210,2119,481	*	*xywh-#3:499,1991,2044,231	*	*
4AA 4DD\	4d 4A< 4F</	pp	4d/	.	pp
!	!	!	!LO:TX:b:i:t=sur la touche	!	!
.	.	.	.	.	.
.	.	.	(8qd/	.	.
*	*	*	*	*below	*
2BB- 2DD^<\	2d 2G< 2F#X<^/	.	4ddo<^^\)	3	.
.	.	.	8r	.	.
.	.	.	8b-\	.	.
=6	=6	=6	=6	=6	=6
4AA 4DD\	4d 4A< 4F</	.	8a/L	.	.
.	.	.	16r	.	.
!	!	!	!LO:TX:b:i:t=du talon	!	!
.	.	.	16a/Jk	4	.
4AA 4DD\	4d 4A< 4F</	.	4f/	.	.
4AA 4DD\	4d 4A< 4F</	.	4a/	.	.
=7	=7	=7	=7	=7	=7
4AA 4DD\	4d 4A< 4F</	.	4d/	.	.
.	.	.	((8qd/	.	.
2BB- 2DD^<\	2d 2G< 2F#X<^/	.	8ee/L)	2	.
.	.	.	8dd/)	.	.
.	.	.	8cc`/	.	.
.	.	.	8b-`/J	.	.
=8	=8	=8	=8	=8	=8
4AA 4DD\	4d 4A< 4F</	.	8a/L	.	.
.	.	.	16r	.	.
.	.	.	16a/Jk	4	.
4AA 4DD\	4d 4A< 4F</	.	4f/	.	.
4D 4DD\	4f 4d 4A</	.	4a/	2	.
!!LO:LB:g=original
=9	=9	=9	=9	=9	=9
*xywh-#3:464,2851,2165,475	*xywh-#3:464,2851,2165,475	*	*xywh-#3:494,2626,2072,251	*	*
.	.	.	(8qa/	.	.
*	*	*	*	*above	*
8C 8EE\	8g 8c< 8B-</	.	8cc^\)	2	.
8r	8r	.	8r	.	.
*	*	*	*	*below	*
2C 2FF\	2f 2c< 2A</	.	4a^>/	2	.
.	.	.	8r	.	.
.	.	.	(8ao</	.	.
=10	=10	=10	=10	=10	=10
*	*	*	*	*above	*
8C#X 8CC#X\	8a 8g 8e 8A</	.	8ee^\)	2	.
8r	8r	.	8r	.	.
!	!	!LO:MO:null:mod=>	!LO:TX:b:t=dimi_nuen_do:problem:dynamics with extention lines:mod=	!	!LO:HP:t=dimi_nuen_do
2D 2DD\	2a 2f 2d 2A</	.	(2ff^\	.	>
.	.	.	8qqee-X/)	.	.
=11	=11	=11	=11	=11	=11
8G 8GG/	8b- 8e-X 8B-/	.	8ee-X\	.	.
8r	8r	.	8r	.	.
!	!	!LO:MO:null:mod=]]	!	!	!
2G 2AA\	[2a 2c#X 2A/	.	(2cc#X^^^\	4	]]
=12	=12	=12	=12	=12	=12
8F 8D\	8a] 8d 8A/	.	8ddo\)	4	pp
8r	8r	.	8r	.	.
!	!	!	!LO:TX:b:t=+	!	!
4DD/	4r	.	4do</	.	.
4r	4r	.	4r	.	.
!!LO:PB:g=original
=13	=13	=13	=13	=13	=13
*xywh-#4:452,954,2144,590	*xywh-#4:452,954,2144,590	*	*xywh-#4:409,670,2235,304	*	*
!	!	!	!LO:TX:b:i:t=sur la tuche	!	!
4AA 4DD\	4d 4A< 4F</	pp	4d/	.	.
.	.	.	(8qd/	.	.
2BB- 2DD^<\	2d^> 2G< 2F#X</	.	4dd\)	.	.
.	.	.	8r	.	.
.	.	.	8b-\	.	.
=14	=14	=14	=14	=14	=14
4AA 4DD\	4d 4A< 4F</	.	8a/L	.	.
.	.	.	16r	.	.
!	!	!	!LO:TX:b:i:t=du talon	!	!
.	.	.	16a/Jk	.	.
4AA 4DD\	4d 4A< 4F</	.	4f/	.	.
4AA 4DD\	4d 4A< 4F</	.	4a/	.	.
=15	=15	=15	=15	=15	=15
4AA 4DD\	4d 4A< 4F</	.	4d/	.	.
.	.	.	((8qd/	.	.
2BB- 2DD^<\	2d^> 2G< 2F#X</	.	8ee/L)	.	.
.	.	.	8dd/)	.	.
.	.	.	8cc`/	.	.
.	.	.	8b-`/J	.	.
=16	=16	=16	=16	=16	=16
4AA 4DD\	4d 4A< 4F</	.	8a/L	.	.
.	.	.	16r	.	.
*	*	*	*	*below	*
.	.	.	16a/Jk	4	.
4AA 4DD\	4d 4A< 4F</	.	4f/	.	.
4D 4AA 4DD\	4f 4d 4A</	.	4a/	2	.
!!LO:LB:g=original
=17	=17	=17	=17	=17	=17
*xywh-#4:443,1827,2238,559	*xywh-#4:443,1827,2238,559	*	*xywh-#4:477,1568,2098,270	*	*
.	.	.	(8qa/	.	.
*	*	*	*	*above	*
8C 8EE/	8g 8c 8B-/	.	8cc^\)	2	.
8r	8r	.	8r	.	.
*	*	*	*	*below	*
2C 2FF/	2f 2c 2A/	.	4a^>/	2	.
.	.	.	8r	.	.
.	.	.	(8ao</	.	.
=18	=18	=18	=18	=18	=18
*	*	*	*	*above	*
8C#X 8CC#X/	8a 8g 8e 8A/	.	8ee^\)	2	.
8r	8r	.	8r	.	.
!	!	!	!LO:TX:b:t=dim._:problem:dynamics with extention lines:mod=	!	!LO:HP:t=dim._
2D 2DD/	2a 2f 2d 2A/	.	(<2ff^\	.	>
.	.	.	8qqee-X/)	.	.
=19	=19	=19	=19	=19	=19
8G 8GG/	8b- 8e-X 8B-/	.	8ee-X\	.	.
8r	8r	.	8r	.	.
2G 2AA\	[2a 2c#X 2A/	.	(2cc#X^^^\	4	]
=20	=20	=20	=20	=20	=20
8F 8D\	8a] 8d 8A/	.	8ddo\)	4	pp
8r	8r	.	8r	.	.
!	!	!	!LO:TX:b:t=+	!	!
4DD/	4r	.	4do</	.	.
4r	4r	.	4r	.	.
!!LO:LB:g=original
=21||	=21||	=21||	=21||	=21||	=21||
*xywh-#4:438,2677,2180,635	*xywh-#4:438,2677,2180,635	*	*xywh-#4:480,2423,2148,286	*	*
!	!LO:TX:a:B:t=Allegretto.	!	!LO:TX:a:B:t=Allegretto.	!LO:DY:rj	!
4FF 4FFF/	4r	.	8f 8A^^/	.	f
.	.	.	8r	.	.
4r	4a 4f 4c 4A/	.	4ff 4a\	.	.
4r	4a 4f 4c 4A/	.	8r	.	.
.	.	.	[8ee 8cc\	.	.
=22	=22	=22	=22	=22	=22
4BB- 4BBB-/	4r	.	8ee]L 8cc\	.	.
.	.	.	16r	.	.
.	.	.	(16ddJk 16b-\	.	.
4r	4b- 4g 4d 4B-/	.	4b- 4g/)	.	.
4r	4b- 4g 4d 4B-/	.	4dd 4f/	.	.
=23	=23	=23	=23	=23	=23
4C 4CC/	4r	.	(8eL 8B-/	.	.
.	.	.	8gJ 8B-/)	.	.
4r	4b- 4g 4e 4B-/	.	(8ddL 8e^/	.	.
.	.	.	8eJ 8B-/)	.	.
4r	4b- 4g 4e 4B-/	.	(8ddL 8e^/	.	.
.	.	.	8eJ 8B-/)	.	.
=24	=24	=24	=24	=24	=24
4F 4FF/	4r	.	8ddL 8f 8A/	.	.
.	.	.	16r	.	.
.	.	.	16dd/Jk	.	.
4r	4a 4f 4c 4A/	.	4cc\	.	.
4r	4a 4f 4c 4A/	.	4a/	.	.
!!LO:PB:g=original
=25	=25	=25	=25	=25	=25
*xywh-#5:485,951,2163,595	*xywh-#5:485,951,2163,595	*	*xywh-#5:480,702,2128,275	*	*
4FF 4FFF/	4r	.	(16fKL 16A/	.	.
.	.	.	8ffJ 8a/)	.	.
.	.	.	16r	.	.
4r	4a 4f 4c#X 4A/	.	4.ff 4.a\	.	.
4r	4a 4f 4c# 4A/	.	.	.	.
.	.	.	(8ee 8cc#X\	.	.
=26	=26	=26	=26	=26	=26
4BB- 4BBB-/	4r	.	8ggL 8ee\)	.	.
.	.	.	16r	.	.
.	.	.	16ffJk 16dd\	.	.
4r	4b- 4g 4d 4B-/	.	4ee 4ccn\	.	.
4r	4b- 4g 4d 4B-/	.	4dd 4b-\	.	.
=27	=27	=27	=27	=27	=27
4C 4CC/	4r	.	8eL [8B-/	.	.
.	.	.	8gJ 8B-/]	.	.
4r	4b- 4g 4e 4B-/	.	(8ddL 8e^/	.	.
.	.	.	8eJ 8B-/)	.	.
4r	4b- 4g 4e 4B-/	.	(8ddL 8e^/	.	.
.	.	.	8eJ 8B-/)	.	.
=28	=28	=28	=28	=28	=28
4F 4FF/	4r	.	8ddL 8f 8A/	.	.
.	.	.	16r	.	.
.	.	.	16ddu</Jk	.	.
4r	4a 4f 4c 4A/	.	4cc/	.	.
4r	4a 4f 4c 4A/	.	4a/	.	.
!!LO:LB:g=original
=29	=29	=29	=29	=29	=29
*	*^	*	*	*	*
*xywh-#5:449,1848,2199,546	*xywh-#5:449,1848,2199,546	*xywh-#5:449,1848,2199,546	*	*xywh-#5:489,1568,2132,293	*	*
!	!	!	!	!LO:MO:mod=!LO&colon;TX&colon;b&colon;i&colon;t=viguroso	!	!
!	!	!	!	!LO:TX:b:t=viguroso	!	!LO:MO:null:mod=!LO&colon;DY&colon;ed=brack
!	!	!	!	!	!	!
!	!	!	!	!	!	!LO:MO:null:mod=ff
.	.	.	.	(8qff#X/	.	.
8E 8EE^/	8a/	8e 8c#X\	ff	8eeo 8a^^\)	.	.
8r	8r	8r	.	8r	.	.
4d 4E\	4.bn/	2g#X 2e\	.	(4.ee 4.bn^\	.	.
4d 4E\	.	.	.	.	.	.
.	8cc#X/	.	.	8ee 8cc#X\)	.	.
=30	=30	=30	=30	=30	=30	=30
.	.	.	.	(8qff#X/	.	.
4c#X 4E\	8a/L	2.a 2.e\	.	8eeL 8a\)	.	.
.	8cc#X/J	.	.	8eeJ 8cc#X\	.	.
4c# 4E\	4ee/	.	.	4eeo\ 4ee	4	.
4c# 4E\	4ee/	.	.	4ee\ 4ee	.	.
=31	=31	=31	=31	=31	=31	=31
.	.	.	.	(8qff#X/	.	.
8E 8EE^/	8a/	8e 8c#X\	.	8ee 8a\)	.	.
8r	8r	8r	.	8r	.	.
4d 4E\	4.bn/	2g#X 2e\	.	(4.ee 4.bn\	.	.
4d 4E\	.	.	.	.	.	.
.	8cc#X/	.	.	8ee 8cc#X\)	.	.
*	*v	*v	*	*	*	*
=32	=32	=32	=32	=32	=32
.	.	.	(8qff#X/	.	.
4c#X 4E\	8aL 8e/	.	8eeL 8a\)	.	.
.	8f#X/J	.	8eeJ 8f#X\	.	.
4c# 4E\	4e/	.	4ee 4e/	.	.
4c# 4E\	4e/	.	4ee 4e/	.	.
!!LO:LB:g=original
=33	=33	=33	=33	=33	=33
*	*^	*	*	*	*
*xywh-#5:418,2692,2252,550	*xywh-#5:418,2692,2252,550	*xywh-#5:418,2692,2252,550	*	*xywh-#5:485,2421,2185,288	*	*
.	.	.	.	(8qff#X/	.	.
8E 8EE^/	8a/	8e 8c#X\	.	8ee 8a\)	.	.
8r	8r	8r	.	8r	.	.
4d 4E\	4.bn/	2g#X 2e\	.	(4.ee 4.bn\	.	.
4d 4E\	.	.	.	.	.	.
.	8cc#X/	.	.	8ee 8cc#X\)	.	.
*	*v	*v	*	*	*	*
=34	=34	=34	=34	=34	=34
4c#X 4A\	4a 4e/	.	8eeL 8a\	.	.
.	.	.	8eeJ 8cc#X\	.	.
4r	4r	.	4eeo\ 4ee	4	.
4r	4r	.	[4ee\ [4ee	.	.
=35	=35	=35	=35	=35	=35
8A\L	2.r	.	2.ee\] 2.ee]	.	.
8c#X\J	.	.	.	.	.
4e\	.	.	.	.	.
4e\	.	.	.	.	.
=36	=36	=36	=36	=36	=36
2.r	2.r	.	8ffnL 8a\	.	.
.	.	.	8ffJ 8cc#X\	.	.
.	.	.	4ee\ 4ee	1 4	.
.	.	.	([4ff\ 4ff	.	.
!!LO:PB:g=original
=37	=37	=37	=37	=37	=37
*xywh-#6:410,968,2237,564	*xywh-#6:410,968,2237,564	*	*xywh-#6:437,690,2111,309	*	*
8A\L	2.r	.	2.ff\]) 2.ff	.	.
8c#X\J	.	.	.	.	.
4f\	.	.	.	.	.
4f\	.	.	.	.	.
=38	=38	=38	=38	=38	=38
4FF 4FFF/	4r	.	8f 8A/	.	.
.	.	.	8r	.	.
4r	4a 4f 4cn 4A/	.	4ff 4a\	.	.
4r	4a 4f 4c 4A/	.	8r	.	.
.	.	.	(8ee (8cc\	.	.
=39	=39	=39	=39	=39	=39
4BB- 4BBB-/	4r	.	8ddL 8b-\))	.	.
.	.	.	16r	.	.
.	.	.	(16ddJk 16b-\	.	.
4r	4b- 4g 4d 4B-/	.	4b- 4g/)	.	.
4r	4b- 4g 4d 4B-/	.	4dd 4f/	.	.
=40	=40	=40	=40	=40	=40
4C 4CC/	4r	.	8eL [8B-/	.	.
.	.	.	8gJ 8B-/]	.	.
4r	4b- 4g 4e 4B-/	.	(8ddL 8e^/	.	.
.	.	.	8eJ 8B-/)	.	.
4r	4b- 4g 4e 4B-/	.	(8ddL 8e^/	.	.
.	.	.	8eJ 8B-/)	.	.
!!LO:LB:g=original
=41	=41	=41	=41	=41	=41
*xywh-#6:396,1811,2340,605	*xywh-#6:396,1811,2340,605	*	*xywh-#6:437,1574,2120,300	*	*
4F 4FF/	4r	.	8ddL 8f 8A/	.	.
.	.	.	16r	.	.
.	.	.	16dd/Jk	.	.
4r	4a 4f 4c 4A/	.	4cc\	.	.
4r	4a 4f 4c 4A/	.	4a/	.	.
=42	=42	=42	=42	=42	=42
4FF 4FFF/	4r	.	(16fKL 16A/	.	.
.	.	.	8ffJ 8a/)	.	.
.	.	.	16r	.	.
4r	4a 4f 4c#X 4A/	.	4.ff 4.a\	.	.
4r	4a 4f 4c# 4A/	.	.	.	.
.	.	.	(8ee 8cc#X\	.	.
=43	=43	=43	=43	=43	=43
4BB- 4BBB-/	4r	.	8ggL 8ee\)	.	.
.	.	.	16r	.	.
.	.	.	16ffJk 16dd\	.	.
4r	4b- 4g 4d 4B-/	.	4ee 4ccn\	.	.
4r	4b- 4g 4d 4B-/	.	4dd 4b-\	.	.
=44	=44	=44	=44	=44	=44
4C 4CC/	4r	.	8eL [8B-/	.	.
.	.	.	8gJ 8B-/]	.	.
4r	4b- 4g 4e 4B-/	.	(8ddL 8e^/	.	.
.	.	.	8eJ 8B-/)	.	.
4r	4b- 4g 4e 4B-/	.	(8ddL 8e^/	.	.
.	.	.	8eJ 8B-/)	.	.
!!LO:LB:g=original
=45	=45	=45	=45	=45	=45
*xywh-#6:432,2722,2179,560	*xywh-#6:432,2722,2179,560	*	*xywh-#6:428,2470,2147,260	*	*
4F 4FF/	4r	.	8ddL 8f 8A/	.	.
.	.	.	16r	.	.
.	.	.	16ddu</Jk	.	.
4r	4a 4f 4c 4A/	.	4cc\	.	.
4r	4a 4f 4c 4A/	.	4a/	.	.
=46	=46	=46	=46	=46	=46
*	*^	*	*	*	*
*	*	*xywh-#6:432,2722,2179,560	*	*	*	*
.	.	.	.	(8qff#X/	.	.
8E 8EE^/	8a/	8e 8c#X\	.	8ee 8a\)	.	.
8r	8r	8r	.	8r	.	.
4d 4E\	4.bn/	2g 2e\	.	(4.ee 4.bn\	.	.
4d 4E\	.	.	.	.	.	.
.	8cc#X/	.	.	8ee 8cc#X\)	.	.
=47	=47	=47	=47	=47	=47	=47
.	.	.	.	(8qff#X/	.	.
4c#X 4E\	8a/L	2.a 2.e\	.	8eeL 8a\)	.	.
.	8cc#X/J	.	.	8eeJ 8cc#X\	.	.
4c# 4E\	4ee/	.	.	4eeo\ 4ee	4	.
4c# 4E\	4ee/	.	.	4ee\ 4ee	.	.
=48	=48	=48	=48	=48	=48	=48
.	.	.	.	(8qff#X/	.	.
8E 8EE^/	8a/	8e 8c#X\	.	8ee 8a\)	.	.
8r	8r	8r	.	8r	.	.
4d 4E\	4.bn/	2g# 2e\	.	(4.ee 4.bn\	.	.
4d 4E\	.	.	.	.	.	.
.	8cc#X/	.	.	8ee 8cc#X\)	.	.
*	*v	*v	*	*	*	*
!!LO:PB:g=original
=49	=49	=49	=49	=49	=49
*xywh-#7:427,951,2257,510	*xywh-#7:427,951,2257,510	*	*xywh-#7:480,631,2128,328	*	*
.	.	.	(8qff#X/	.	.
4c#X 4E\	8aL 8e/	.	8eeL 8a\)	.	.
.	8f#X/J	.	8eeJ 8f#X\	.	.
4c# 4E\	4e/	.	4ee 4e/	.	.
4c# 4E\	4e/	.	4ee 4e/	.	.
=50	=50	=50	=50	=50	=50
*	*^	*	*	*	*
.	(<8qff#X/	.	.	.	.	.
!	!	!	!	!LO:TX:b:i:t=sons harmoniques	!	!
!	!	!	!	!LO:N:n=2:vis=2	!	!
8E 8EE/	2.ee/)	4a\	p	8aaa 8rdd 8ra\	.	.
8r	.	.	.	8r	.	.
!	!	!	!	!LO:S:s=2:note:problem:note-level slur	!	!
!	!	!	!	!LO:N:n=2:vis=2	!	!
4e 4d 4G#X\	.	(4.bn\	.	(4.bbbn (4.ree (4.rbn\	.	.
4e 4d 4G#\	.	.	.	.	.	.
!	!	!	!	!LO:N:n=2:vis=2	!	!
.	.	8cc#X\)	.	8cccc#X) 8rff#X) 8rcc#X\)))	.	.
*	*v	*v	*	*	*	*
=51	=51	=51	=51	=51	=51
.	(8qff#X/	.	.	.	.
!	!	!	!LO:N:n=2:vis=2	!	!
4e 4c#X 4A\	4ee 4a\)	.	8aaaL 8rdd 8ra\	.	.
!	!	!	!LO:N:n=2:vis=2	!	!
.	.	.	8cccc#XJ 8rff#X 8rcc#X\	.	.
!	!	!	!LO:N:n=2:vis=2	!	!
4r	4r	.	4eeee 4raa 4ree\	.	.
!	!	!	!LO:N:n=2:vis=2	!	!
4r	4r	.	[4eeee [4raa [4ree\	.	.
=52	=52	=52	=52	=52	=52
8A\L	8a\L	p	2.eeee] 2.raa] 2.ree\]	.	.
8c#X\J	8cc#X\J	.	.	.	.
4e\	4ee\	.	.	.	.
4e\	4ee\	.	.	.	.
=53	=53	=53	=53	=53	=53
!	!	!	!LO:TX:b:t=sul A_:dur=6q:ext=ud:problem:text with extention lines:mod=	!	!
!	!	!	!LO:N:n=2:vis=2	!	!
2.r	2.r	.	8aaaL 8rdd 8ra\	.	.
!	!	!	!LO:N:n=2:vis=2	!	!
.	.	.	8ccccJ 8rff#X 8rcc#X\	.	.
!	!	!	!LO:N:n=2:vis=2	!	!
.	.	.	4ffffn 4rbb-X 4rffn\	.	.
!	!	!	!LO:N:n=2:vis=2	!	!
.	.	.	[4ffff [4rbb- [4rff\	.	.
!!LO:LB:g=original
=54	=54	=54	=54	=54	=54
*^	*	*	*	*	*
*xywh-#7:392,1746,2248,644	*xywh-#7:392,1746,2248,644	*xywh-#7:392,1746,2248,644	*	*xywh-#7:449,1462,2154,364	*	*
!	!LO:MO:mod=!LO&colon;TX&colon;i&colon;t=rall.	!LO:MO:mod=!LO&colon;TX&colon;i&colon;t=rall.	!	!	!	!
!	!LO:TX:b:Bi:t=rall.	!LO:TX:a:Bi:t=rall.	!	!LO:TX:b:i:t=rall.	!	!
8A/L	2A\	8a\L	.	2ffff] 2rbb-X] 2rff\]	.	.
8c#X/J	.	8cc#X\J	.	.	.	.
4ryy	.	4aa 4a\	.	.	.	.
!	!	!	!	!LO:N:n=2:vis=2	!	!
4AA/	4AA/yy	4cc#X 4g 4c#X/	.	4eeee 4raa 4ree\	.	.
*v	*v	*	*	*	*	*
=55	=55	=55	=55	=55	=55
!	!LO:TX:a:B:t=Tempo I.°	!	!LO:TX:a:B:t=Tempo I.°	!	!
4D/	4dd 4f 4d/	pp	4do</	.	pp
.	.	.	(8qd/	.	.
2D 2BB- 2DD^<\	2d 2G< 2F#X<^>/	.	4ddo\)	.	.
.	.	.	8r	.	.
.	.	.	8b-\	.	.
=56	=56	=56	=56	=56	=56
4D 4AA 4DD\	4d 4A< 4F</	.	8a/L	.	.
.	.	.	16r	.	.
*	*	*	*	*below	*
!	!	!	!LO:TX:b:i:t=du talon	!	!
.	.	.	16a/Jk	4	.
4D 4AA 4DD\	4d 4A< 4F</	.	4f/	.	.
4D 4AA 4DD\	4d 4A< 4F</	.	4a/	.	.
=57	=57	=57	=57	=57	=57
4D 4AA 4DD\	4d 4A< 4F</	.	4do</	.	.
.	.	.	((8qd/	.	.
2D 2AA 2DD^<\	2d 2G< 2F#X<^>/	.	8ee^>/L)	2	.
.	.	.	8dd^>/)	.	.
.	.	.	8cc^>/	.	.
.	.	.	8b-^>/J	.	.
=58	=58	=58	=58	=58	=58
4D 4AA 4DD\	4d 4A< 4F</	.	8a/L	.	.
.	.	.	16r	.	.
.	.	.	16a/Jk	4	.
4D 4AA 4DD\	4d 4A< 4F</	.	4f/	.	.
4D 4AA 4DD\	4f 4d 4A</	.	4a/	2	.
!!LO:LB:g=original
=59	=59	=59	=59	=59	=59
*xywh-#7:463,2692,2150,573	*xywh-#7:463,2692,2150,573	*	*xywh-#7:476,2399,2159,311	*	*
.	.	.	(8qa/	.	.
*	*	*	*	*above	*
8C 8EE\	8g 8c< 8B-</	.	8cc^\)	2	.
8r	8r	.	8r	.	.
*	*	*	*	*below	*
2C 2FF\	2f 2c< 2A</	.	4a^>/	2	.
.	.	.	8r	.	.
.	.	.	(8ao</	.	.
=60	=60	=60	=60	=60	=60
*	*	*	*	*above	*
8C#X 8CC#X/	8a 8g 8e 8A/	.	8ee\)	2	<
8r	8r	.	8r	.	.
2D 2DD/	2a 2f 2d 2A/	.	(<2ff^\	.	.
.	.	.	8qqee-X/)	.	.
=61	=61	=61	=61	=61	=61
*	*	*	*	*below	*
!	!	!	!LO:TX:b:t=sul A_:dur=3q:ext=ud:problem:text with extention lines:mod=	!	!
8GG 8GGG^/	4r	.	(8.ee-X\L	2	.
8r	.	.	.	.	.
.	.	.	16bb-\Jk)	2	.
4G 4E-X 4GG;\	4b-X 4e-X 4B-X;/	.	4bb-;\	.	.
4G 4En 4AA\	[4a 4c#X 4A/	.	(<4cc#X\	1	.
*kcancel	*kcancel	*	*kcancel	*above	*
.	.	.	8qqdd/)	1	[
=62	=62	=62	=62	=62	=62
4F 4D\	4a] 4d 4A/	.	2dd\	.	.
4DD/	4r	.	.	.	.
4r	4r	.	4r	.	.
!!LO:PB:g=original
=63||	=63||	=63||	=63||	=63||	=63||
*k[f#]	*k[f#]	*	*k[f#]	*	*
*xywh-#8:469,929,2177,561	*xywh-#8:469,929,2177,561	*	*xywh-#8:446,650,2199,305	*	*
!	!LO:TX:a:B:t=Allegro.	!	!LO:TX:a:B:t=Allegro.	!	!
4D\	4d/	.	2.r	.	.
!	!LO:TX:b:t=cre_scen_do:problem:dynamics with extention lines:mod=	!LO:HP:t=cre_scen_do	!	!	!
.	.	<	.	.	.
(8qC#X/	(8qc#X/	.	.	.	.
4D\)	4d/)	.	.	.	.
(8qC#/	(8qc#/	.	.	.	.
4D\)	4d/)	.	.	.	.
=64	=64	=64	=64	=64	=64
(8qC#X/	(8qc#X/	.	.	.	.
4D\)	4d/)	.	2.r	.	.
(8qC#/	(8qc#/	.	.	.	.
4D\)	4d/)	.	.	.	.
(8qC#/	(8qc#/	.	.	.	.
4D\)	4d/)	.	.	.	.
=65	=65	=65	=65	=65	=65
(8qC#X/	(8qc#X/	.	.	.	.
4D\)	4d/)	.	2.r	.	.
(8qC#/	(8qc#/	.	.	.	.
4D\)	4d/)	.	.	.	.
(8qC#/	(8qc#/	.	.	.	.
4D\)	4d/)	.	.	.	.
=66	=66	=66	=66	=66	=66
8.DL 8.DD/	8.d/L	.	2.r	.	.
16EJk 16EE/	16e/Jk	.	.	.	.
8DL 8DD/	8d/L	.	.	.	.
8Cn 8CCn/	8cn/	.	.	.	.
8BB 8BBB/	8B/	.	.	.	.
8AAJ 8AAA/	8A/J	[	.	.	.
!!LO:LB:g=original
=67	=67	=67	=67	=67	=67
*xywh-#8:437,1818,2190,547	*xywh-#8:437,1818,2190,547	*	*xywh-#8:446,1494,2208,359	*	*
!	!	!	!	!	!LO:DY:rj
8GG 8GGG/	8G/	ff	8gg 8b 8d 8Gu/	.	ff
8r	8r	.	8r	.	.
2G 2D 2GG^/	2dd 2b 2g 2d^/	.	4.gg 4.b 4.d 4.Gu/	.	.
.	.	.	(8ff# (8b/	.	.
=68	=68	=68	=68	=68	=68
8.AL 8.D 8.GG\	8.eL 8.c/	.	4ee 4cc 4d 4G/))	.	.
16AJk 16D 16GG\	16eJk 16c/	.	.	.	.
.	.	.	(32qqeeLLL 32qqcc/	.	.
.	.	.	32qqff#JJJ 32qqcc/	.	.
4A 4D 4GG\	4e 4c/	.	4ee 4cc\)	.	.
4A 4D 4GG\	4f# 4d 4c/	.	4dd 4d/	.	.
=69	=69	=69	=69	=69	=69
8G 8D 8GG/	8g 8d 8B/	.	8ggL 8b 8d 8G/	.	.
8r	8r	.	16r	.	.
.	.	.	16ff#Jk 16b 16d/	.	.
2G 2D 2GG^/	2dd 2b 2g 2d^/	.	8ggL 8b 8d/	.	.
.	.	.	8aa 8b 8d/	.	.
.	.	.	8gg 8b 8d/	.	.
.	.	.	8ff#J 8b 8d/	.	.
=70	=70	=70	=70	=70	=70
8.AL 8.D 8.GG\	8.eL 8.c/	.	4ee 4cc 4d 4G/	.	.
16AJk 16D 16GG\	16eJk 16c/	.	.	.	.
.	.	.	(32qqeeLLL 32qqcc/	.	.
.	.	.	32qqff#JJJ 32qqcc/	.	.
4A 4D 4GG\	4e 4c/	.	4ee 4cc\)	.	.
4A 4D 4GG\	4f# 4d 4c/	.	4dd 4d/	.	.
!!LO:LB:g=original
=71	=71	=71	=71	=71	=71
*xywh-#8:442,2698,2240,574	*xywh-#8:442,2698,2240,574	*	*xywh-#8:442,2406,2168,332	*	*
8G 8D 8GG/	8g 8d 8B/	.	4gg 4b 4d 4G/	.	.
8r	8r	.	.	.	.
2G 2D 2GG^/	2gg 2dd 2b 2g^\	.	2gg 2b 2d 2G^>/	.	.
=72	=72	=72	=72	=72	=72
4AA 4AAA/	4r	.	8aaL 8cc#X 8e 8Au/	.	.
.	.	.	16r	.	.
!	!	!	!LO:TX:b:i:t=du talon	!	!
.	.	.	16bbJk 16a/	.	.
4r	4a 4g 4c#X 4A/	.	8aaL 8a/	.	.
.	.	.	8gg 8a/	.	.
4r	4a 4g 4c# 4A/	.	8ee 8a/	.	.
.	.	.	8ff#J 8a/	.	.
=73	=73	=73	=73	=73	=73
4D 4DD/	4r	.	8ddL 8d/	.	.
.	.	.	8ff#J 8a/	.	.
4r	4a 4f# 4d 4A/	.	(16bbKL 16a\	.	.
.	.	.	8.aaJ 8.a\)	.	.
4r	4a 4f# 4d 4A/	.	(16bbKL 16a\	.	.
.	.	.	8.aaJ 8.a\)	.	.
=74	=74	=74	=74	=74	=74
4AA 4AAA/	4r	.	8aaL 8cc#X 8e 8A/	.	.
.	.	.	16r	.	.
.	.	.	16bbJk 16a/	.	.
4r	4a 4g 4c#X 4A/	.	8aaL 8a\	.	.
.	.	.	8gg 8a\	.	.
4r	4a 4g 4c# 4A/	.	8ee 8a\	.	.
.	.	.	8ff#J 8a\	.	.
!!LO:PB:g=original
=75	=75	=75	=75	=75	=75
*xywh-#9:436,917,2220,556	*xywh-#9:436,917,2220,556	*	*xywh-#9:480,646,2084,318	*	*
4D 4DD/	4a 4f# 4d 4A/	.	8ddL 8d/	.	.
.	.	.	16r	.	.
.	.	.	16ddJk 16d/	.	.
4r	4r	.	8eeL 8cc#X 8d/	.	.
.	.	.	8ff#J 8ccn 8d/	.	.
4D 4DD/	4f# 4d 4c/	.	8bbL 8cc 8d\	.	.
.	.	.	8aaJ 8cc 8d\	.	.
=76	=76	=76	=76	=76	=76
8GG 8GGG/	8g 8d 8B/	.	8gg 8b 8d 8G\	.	.
8r	8r	.	8r	.	.
2G 2D 2GG^/	2dd 2b 2g 2d^>/	.	4.gg 4.b 4.d 4.Gu\	.	.
.	.	.	(8ff# (8b\	.	.
=77	=77	=77	=77	=77	=77
8.AL 8.D 8.GG\	8.eL 8.c/	.	4ee 4cc 4d 4G\))	.	.
16AJk 16D 16GG\	16eJk 16c/	.	.	.	.
.	.	.	(32qqeeLLL 32qqcc/	.	.
.	.	.	32qqff#JJJ 32qqcc/	.	.
4A 4D 4GG\	4e 4c/	.	4ee 4cc\)	.	.
4A 4D 4GG\	4f# 4d 4c/	.	4dd 4d/	.	.
!!LO:LB:g=original
=78	=78	=78	=78	=78	=78
*xywh-#9:454,1802,2113,538	*xywh-#9:454,1802,2113,538	*	*xywh-#9:483,1536,2098,315	*	*
8G 8D 8GG/	8g 8d 8B/	.	8ggL 8b 8d 8G\	.	.
8r	8r	.	16r	.	.
.	.	.	16ff#Jk 16b 16d\	.	.
2G 2D 2GG^/	2dd 2b 2g 2d^>/	.	8ggL 8b 8d\	.	.
.	.	.	8aa 8b 8d\	.	.
.	.	.	8gg 8b 8d\	.	.
.	.	.	8ff#J 8b 8d\	.	.
=79	=79	=79	=79	=79	=79
8.AL 8.D 8.GG\	8.eL 8.c/	.	4ee 4cc 4d 4G\	.	.
16AJk 16D 16GG\	16eJk 16c/	.	.	.	.
.	.	.	(32qqeeLLL 32qqcc/	.	.
.	.	.	32qqff#JJJ 32qqcc/	.	.
4A 4D 4GG\	4e 4c/	.	4ee 4cc\)	.	.
4A 4D 4GG\	4f# 4d 4c/	.	4dd 4d/	.	.
=80	=80	=80	=80	=80	=80
8G 8D 8GG/	8g 8d 8B/	.	4gg 4b 4d 4G\	.	.
8r	8r	.	.	.	.
2G 2D 2GG^/	2gg 2dd 2b 2g^\	.	2bb 2b 2d 2G^\	.	.
=81	=81	=81	=81	=81	=81
4AA 4AAA/	4r	.	8aaL 8cc#X 8e 8Au\	.	.
.	.	.	16r	.	.
!	!	!	!LO:TX:b:i:t=du talon	!	!
.	.	.	16bbJk 16a\	.	.
4r	4a 4g 4c#X 4A/	.	8aaL 8a\	.	.
.	.	.	8gg 8a\	.	.
4r	4a 4g 4c# 4A/	.	8ee 8a\	.	.
.	.	.	8ff#J 8a\	.	.
!!LO:LB:g=original
=82	=82	=82	=82	=82	=82
*xywh-#9:431,2665,2113,542	*xywh-#9:431,2665,2113,542	*	*xywh-#9:491,2415,2091,274	*	*
4D 4DD/	4r	.	8ddL 8d\	.	.
.	.	.	8ff#J 8a\	.	.
4r	4a 4f# 4d 4A/	.	(16bbKL 16a\	.	.
.	.	.	8.aaJ 8.a\)	.	.
4r	4a 4f# 4d 4A/	.	(16bbKL 16a\	.	.
.	.	.	8.aaJ 8.a\)	.	.
=83	=83	=83	=83	=83	=83
4AA 4AAA/	4r	.	8aaL 8cc#X 8e 8A\	.	.
.	.	.	16r	.	.
.	.	.	16bbJk 16a\	.	.
4r	4a 4g 4c#X 4A/	.	8aaL 8a\	.	.
.	.	.	8gg 8a\	.	.
4r	4a 4g 4c# 4A/	.	8ee 8a\	.	.
.	.	.	8ff#J 8a\	.	.
=84	=84	=84	=84	=84	=84
8D 8DD/	8a 8f# 8d 8A/	.	8dd 8d/	.	.
8r	8r	.	8r	.	.
4r	4.dd 4.d/	.	4.dd 4.du/	.	.
4r	.	.	.	.	.
.	8dd#X 8d#X/	.	8dd#X 8d#X/	.	.
!!LO:PB:g=original
=85||	=85||	=85||	=85||	=85||	=85||
*xywh-#10:421,955,2192,560	*xywh-#10:421,955,2192,560	*	*xywh-#10:428,698,2182,306	*	*
8AA 8AAA/	8ee 8e/	.	8ee 8cc 8e 8Au\	.	.
8r	8r	.	8r	.	.
2A 2E 2C^\	2ee 2cc 2a 2e^>/	.	4.ccc 4.cc 4.e 4.Au\	.	.
.	.	.	(8aa 8cc\	.	.
=86	=86	=86	=86	=86	=86
4D 4DD/	4ff# 4cc 4f#\	.	8ff#L 8cc 8d\)	.	.
.	.	.	16r	.	.
.	.	.	16ddJk 16d\	.	.
4d 4c 4A 4D\	4ff# 4cc 4f#\	.	4ff# 4cc 4d\	.	.
4d 4B 4G\	4gg 4dd 4b 4g\	.	4ff# 4b 4d\	.	.
=87	=87	=87	=87	=87	=87
8AA 8AAA/	8ee 8e/	.	8ee 8cc 8e 8A\	.	.
8r	8r	.	8r	.	.
2A 2E 2C^\	2ee 2cc 2a 2e^>/	.	4.ccc 4.cc 4.e 4.Au\	.	.
.	.	.	(8aa 8cc\	.	.
=88	=88	=88	=88	=88	=88
4D 4DD/	4ff# 4cc 4f#\	.	8ff#L 8cc 8d\)	.	.
.	.	.	16r	.	.
.	.	.	16ddJk 16d\	.	.
4d 4c 4A 4D\	4ff# 4cc 4f#\	.	4ff# 4cc 4d\	.	.
4d 4c 4A 4D\	4gg 4dd 4b 4g\	.	4ff# 4b 4d\	.	.
=89	=89	=89	=89	=89	=89
4d 4c 4A 4D\	4ff# 4cc 4f#\	.	8ff#L 8cc 8d\	.	.
.	.	.	16r	.	.
.	.	.	16ddJk 16d\	.	.
4d 4c 4A 4D\	4ff# 4cc 4f#\	.	4ff# 4cc 4d\	.	.
4d 4B 4G\	4gg 4dd 4b 4g\	.	4ff# 4b 4d\	.	.
!!LO:LB:g=original
=90	=90	=90	=90	=90	=90
*xywh-#10:448,1798,2174,627	*xywh-#10:448,1798,2174,627	*	*xywh-#10:495,1516,2118,347	*	*
4d 4c 4A 4D\	4ff# 4cc 4f#\	.	8ff#L 8cc 8d\	.	.
.	.	.	16r	.	.
.	.	.	16ddJk 16d\	.	.
4d 4c 4A 4D\	4ff# 4cc 4f#\	.	4ff# 4cc 4d\	.	.
4d 4B 4G\	4gg 4dd 4b 4g\	.	4ff# 4b 4d\	.	.
=91	=91	=91	=91	=91	=91
*	*	*	*^	*	*
*	*	*	*	*xywh-#10:495,1516,2118,347	*	*
*tremolo	*	*	*	*	*	*
32DDD/LLL	4ddd 4aa 4ff# 4dd\	.	4ddd\	4dd 4d\	.	.
32DD/	.	.	.	.	.	.
32DDD/	.	.	.	.	.	.
32DD/	.	.	.	.	.	.
32DDD/	.	.	.	.	.	.
32DD/	.	.	.	.	.	.
32DDD/	.	.	.	.	.	.
32DD/	.	.	.	.	.	.
32DDD/	4dd 4f# 4d/	.	(16ccc#X/LL	4ccc# 4dd 4d\	.	.
32DD/	.	.	.	.	.	.
32DDD/	.	.	16ddd/	.	.	.
32DD/	.	.	.	.	.	.
32DDD/	.	.	16ccc#/	.	.	.
32DD/	.	.	.	.	.	.
32DDD/	.	.	16ddd/JJ)	.	.	.
32DD/	.	.	.	.	.	.
32DDD/	4dd 4f# 4d/	.	(16ccc#/LL	4ccc# 4dd 4d\	.	.
32DD/	.	.	.	.	.	.
32DDD/	.	.	16ddd/	.	.	.
32DD/	.	.	.	.	.	.
32DDD/	.	.	16ccc#/	.	.	.
32DD/	.	.	.	.	.	.
32DDD/	.	.	16ddd/JJ)	.	.	.
32DD/JJJ	.	.	.	.	.	.
=92	=92	=92	=92	=92	=92	=92
32DDD/LLL	4dd 4g 4e 4d/	.	(16ccc#X/LL	4ccc# 4dd 4d\	.	.
32DD/	.	.	.	.	.	.
32DDD/	.	.	16ddd/	.	.	.
32DD/	.	.	.	.	.	.
32DDD/	.	.	16ccc#/	.	.	.
32DD/	.	.	.	.	.	.
32DDD/	.	.	16ddd/JJ)	.	.	.
32DD/	.	.	.	.	.	.
32DDD/	4dd 4g 4e 4d/	.	(16ccc#/LL	4ccc# 4dd 4d\	.	.
32DD/	.	.	.	.	.	.
32DDD/	.	.	16ddd/	.	.	.
32DD/	.	.	.	.	.	.
32DDD/	.	.	16ccc#/	.	.	.
32DD/	.	.	.	.	.	.
32DDD/	.	.	16ddd/JJ)	.	.	.
32DD/	.	.	.	.	.	.
32DDD/	4dd 4g#X 4e#X 4d/	.	(16ccc#/LL	4ccc# 4dd 4d\	.	.
32DD/	.	.	.	.	.	.
32DDD/	.	.	16ddd/	.	.	.
32DD/	.	.	.	.	.	.
32DDD/	.	.	16ccc#/	.	.	.
32DD/	.	.	.	.	.	.
32DDD/	.	.	16ddd/JJ)	.	.	.
32DD/JJJ	.	.	.	.	.	.
!!LO:LB:g=original
=93	=93	=93	=93	=93	=93	=93
*xywh-#10:448,2690,2210,650	*xywh-#10:448,2690,2210,650	*	*xywh-#10:462,2383,2208,358	*xywh-#10:462,2383,2208,358	*	*
32DDD/LLL	4dd 4a 4f# 4d/	.	(16ccc#X/LL	4ccc# 4dd 4d\	.	.
32DD/	.	.	.	.	.	.
32DDD/	.	.	16ddd/	.	.	.
32DD/	.	.	.	.	.	.
32DDD/	.	.	16ccc#/	.	.	.
32DD/	.	.	.	.	.	.
32DDD/	.	.	16ddd/JJ)	.	.	.
32DD/	.	.	.	.	.	.
32DDD/	4dd 4b-X 4gn 4d/	.	(16ccc#/LL	4ccc# 4dd 4d\	.	.
32DD/	.	.	.	.	.	.
32DDD/	.	.	16ddd/	.	.	.
32DD/	.	.	.	.	.	.
32DDD/	.	.	16ccc#/	.	.	.
32DD/	.	.	.	.	.	.
32DDD/	.	.	16ddd/JJ)	.	.	.
32DD/	.	.	.	.	.	.
32DDD/	4dd 4bn 4g#X 4d/	.	(16ccc#/LL	4ccc# 4dd 4d\	.	.
32DD/	.	.	.	.	.	.
32DDD/	.	.	16ddd/	.	.	.
32DD/	.	.	.	.	.	.
32DDD/	.	.	16ccc#/	.	.	.
32DD/	.	.	.	.	.	.
32DDD/	.	.	16ddd/JJ)	.	.	.
32DD/JJJ	.	.	.	.	.	.
*Xtremolo	*	*	*	*	*	*
=94	=94	=94	=94	=94	=94	=94
8DDL 8DDD/	8ddL 8cc 8a 8d/	.	(16ccc#X/LL	4ccc# 4dd 4d\	.	.
.	.	.	16ddd/	.	.	.
16r	16r	.	16ccc#/	.	.	.
16EJk 16EE/	16eeJk 16e/	.	16ddd/JJ)	.	.	.
8DL 8DD/	8ddL 8d/	.	(16ccc#/LL	4ccc# 4dd 4d\	.	.
.	.	.	16ddd/	.	.	.
8C 8CC/	8cc 8c/	.	16ccc#/	.	.	.
.	.	.	16ddd/JJ)	.	.	.
8BB 8BBB/	8b 8B/	.	((16ccc#/LL	4ccc# 4dd 4d\	.	.
.	.	.	16ddd/	.	.	.
8AAJ 8AAA/	8aJ 8A/	.	16ccc#/	.	.	.
.	.	.	16ddd/JJ	.	.	.
*	*	*	*v	*v	*	*
=95	=95	=95	=95	=95	=95
8GG 8GGG/	8g 8G/	.	8gg 8b 8d 8G\))	.	.
8r	8r	.	8r	.	.
2G 2D 2GG^/	2dd 2b 2g 2d^>/	.	4.gg 4.b 4.d 4.G\	.	.
.	.	.	(8ff# (8b\	.	.
!!LO:LB:g=original
=96	=96	=96	=96	=96	=96
*xywh-#11:358,964,2239,551	*xywh-#11:358,964,2239,551	*	*xywh-#11:394,679,2137,333	*	*
8.AL 8.D 8.GG\	8.eL 8.c/	.	4ee 4cc 4d 4G\))	.	.
16AJk 16D 16GG\	16eJk 16c/	.	.	.	.
.	.	.	(32qqeeLLL 32qqcc/	.	.
.	.	.	32qqff#JJJ 32qqcc/	.	.
4A 4D 4GG\	4e 4c/	.	4ee 4cc\)	.	.
4A 4D 4GG\	4f# 4d 4c/	.	4dd 4d/	.	.
=97	=97	=97	=97	=97	=97
8G 8D 8GG/	8g 8d 8B/	.	8ggL 8b 8d 8G\	.	.
8r	8r	.	16r	.	.
.	.	.	16ff#Jk 16b 16d\	.	.
2G 2D 2GG^/	2dd 2b 2g 2d^>/	.	8ggL 8b 8d\	.	.
.	.	.	8aa 8b 8d\	.	.
.	.	.	8gg 8b 8d\	.	.
.	.	.	8ff#J 8b 8d\	.	.
=98	=98	=98	=98	=98	=98
8.AL 8.D 8.GG\	8.eL 8.c/	.	4ee 4cc 4d 4G\	.	.
16AJk 16D 16GG\	16eJk 16c/	.	.	.	.
.	.	.	(32qqeeLLL 32qqcc/	.	.
.	.	.	32qqff#JJJ 32qqcc/	.	.
4A 4D 4GG\	4e 4c/	.	4ee 4cc\)	.	.
4A 4D 4GG\	4f# 4d 4c/	.	4dd 4d/	.	.
=99	=99	=99	=99	=99	=99
8G 8D 8GG\	8g 8d 8B/	.	4gg 4b 4d 4G\	.	.
8r	8r	.	.	.	.
2G 2D 2GG^/	2gg 2dd 2b 2g^\	.	2bb 2b 2d 2G^\	.	.
=100	=100	=100	=100	=100	=100
4AA 4AAA/	4r	.	8aaL 8cc#X 8e 8A\	.	.
!	!	!	!LO:TX:b:i:t=du talon	!	!
.	.	.	16r	.	.
.	.	.	16bbJk 16a\	.	.
4r	4a 4g 4c#X 4A/	.	8aaL 8a\	.	.
.	.	.	8gg 8a\	.	.
4r	4a 4g 4c# 4A/	.	8ee 8a\	.	.
.	.	.	8ff#J 8a\	.	.
!!LO:LB:g=original
=101	=101	=101	=101	=101	=101
*xywh-#11:434,1813,2124,582	*xywh-#11:434,1813,2124,582	*	*xywh-#11:425,1564,2199,297	*	*
4D 4DD/	4r	.	8ddL 8d\	.	.
.	.	.	8ff#J 8a\	.	.
4r	4a 4f# 4d 4A/	.	(16bbKL 16a\	.	.
.	.	.	8.aaJ 8.a\)	.	.
4r	4a 4f# 4d 4A/	.	(16bbKL 16a\	.	.
.	.	.	8.aaJ 8.a\)	.	.
=102	=102	=102	=102	=102	=102
4AA 4AAA/	4r	.	8aaL 8cc#X 8e 8A\	.	.
.	.	.	16r	.	.
.	.	.	16bbJk 16a\	.	.
4r	4a 4g 4c#X 4A/	.	8aaL 8a\	.	.
.	.	.	8gg 8a\	.	.
4r	4a 4g 4c# 4A/	.	8ee 8a\	.	.
.	.	.	8ff#J 8a\	.	.
=103	=103	=103	=103	=103	=103
4D 4DD/	4a 4f# 4d 4A/	.	8ddL 8d/	.	.
.	.	.	16r	.	.
.	.	.	16ddJk 16d/	.	.
4r	4r	.	8eeL 8cc#X 8d\	.	.
.	.	.	8ff# 8ccn 8d\	.	.
4D 4DD/	4f# 4d 4c/	.	8bb 8cc 8d\	.	.
.	.	.	8aaJ 8cc 8d\	.	.
=104	=104	=104	=104	=104	=104
8GG 8GGG/	8g 8B/	.	8gg 8b 8d 8G\	.	.
8r	8r	.	8r	.	.
2G 2D 2GG^/	2dd 2b 2g 2d^>/	.	4.gg 4.b 4.d 4.Gu\	.	.
.	.	.	(8ff# (8b\	.	.
!!LO:LB:g=original
=105	=105	=105	=105	=105	=105
*xywh-#11:398,2657,2226,608	*xywh-#11:398,2657,2226,608	*	*xywh-#11:380,2350,2293,413	*	*
8.AL 8.D 8.GG\	8.eL 8.c/	.	4ee 4cc 4d 4G\))	.	.
16AJk 16D 16GG\	16eJk 16c/	.	.	.	.
.	.	.	(32qqeeLLL 32qqcc/	.	.
.	.	.	32qqff#JJJ 32qqcc/	.	.
4A 4D 4GG\	4e 4c/	.	4ee 4cc\)	.	.
4A 4D 4GG\	4f# 4d 4c/	.	4dd 4d/	.	.
=106	=106	=106	=106	=106	=106
8G 8D 8GG/	8g 8d 8B/	.	8ggL 8b 8d 8G\	.	.
8r	8r	.	16r	.	.
.	.	.	16ff#Jk 16b 16d\	.	.
2G 2D 2GG^/	2dd 2b 2g 2d^>/	.	8ggL 8b 8d\	.	.
.	.	.	8aa 8b 8d\	.	.
.	.	.	8gg 8b 8d\	.	.
.	.	.	8ff#J 8b 8d\	.	.
=107	=107	=107	=107	=107	=107
8.AL 8.D 8.GG\	8.eL 8.c/	.	4ee 4cc 4d 4G\	.	.
16AJk 16D 16GG\	16eJk 16c/	.	.	.	.
.	.	.	(32qqeeLLL 32qqcc/	.	.
.	.	.	32qqff#JJJ 32qqcc/	.	.
4A 4D 4GG\	4e 4c/	.	4ee 4cc\)	.	.
4A 4D 4GG\	4f# 4c/	.	4dd 4d/	.	.
=108	=108	=108	=108	=108	=108
8G 8D 8GG/	8g 8d 8B/	.	4gg 4b 4d 4G\	.	.
8r	8r	.	.	.	.
*	*8va	*	*	*	*
8G 8D 8GG/	8bbb 8ggg 8ddd 8bb\	.	4bbb;<o\	2	.
*	*X8va	*	*	*	*
8r;	8r;	.	.	.	.
8.r	8.r	.	8.r	.	.
!	!	!	!	!	!LO:MO:mod=.
16D/	16d/	.	16d/	.	p
!!LO:PB:g=original
!LO:MO:mod==109||	!LO:MO:mod==109||	!LO:MO:mod==109||	!LO:MO:mod==109||	!LO:MO:mod==109||	!LO:MO:mod==109||
=109	=109	=109	=109	=109	=109
*xywh-#12:448,931,2220,595	*xywh-#12:448,931,2220,595	*	*xywh-#12:443,672,2202,398	*	*
!	!LO:TX:b:Bi:t=suivez le Violon	!	!	!	!
!	!LO:TX:a:B:t=Poco Andante.	!	!LO:TX:a:B:t=Poco Andante.	!	!
8.G\L	8.g\L	pp	8.g\L	.	pp
(16B-X\Jk	(16b-X\Jk	.	(16b-X\Jk	.	.
*	*	*	*	*below	*
4d^\)	4dd^\)	.	4dd^o<\)	3	.
8.c#X\L	8.cc#X\L	.	8.cc#X\L	4	.
(16B-\Jk	(16b-\Jk	.	(16b-\Jk	.	.
=110	=110	=110	=110	=110	=110
8.G\L)	8.g\L)	.	8.g\L)	.	.
(16B-X\Jk	(16b-X\Jk	.	(16b-X\Jk	.	.
4d^\)	4dd^\)	.	4dd^\)	.	.
8.c#X\L	8.cc#X\L	.	8.cc#X\L	.	.
(16B-\Jk	(16b-\Jk	.	(16b-\Jk	.	.
=111	=111	=111	=111	=111	=111
*	*	*	*	*	*^
16G\LL	16g\LL	.	16g\LL	.	>	.
!	!	!	!	!	!	!LO:HP:a:t=dim.
!	!	!LO:MO:null:mod=>	!	!	!	!LO:MO:mod=.
16d\	16dd\	.	16dd\	.	.	>
16c#X\	16cc#X\	.	16cc#X\	.	.	.
16B-X\JJ	16b-X\JJ	.	16b-X\JJ	.	.	.
16G\LL	16g\LL	.	16g\LL	.	.	.
16d\	16dd\	.	16dd\	.	.	.
16c#\	16cc#\	.	16cc#\	.	.	.
16B-\JJ	16b-\JJ	.	16b-\JJ	.	.	.
16G\LL	16g\LL	.	16g\LL	.	.	.
16d\	16dd\	.	16dd\	.	.	.
16c#\	16cc#\	.	16cc#\	.	.	.
!	!	!LO:MO:null:mod=]	!	!	!	!
16B-\JJ)	16b-\JJ)	.	16b-\JJ)	.	]	.
*	*	*	*	*	*v	*v
!!LO:LB:g=original
=112	=112	=112	=112	=112	=112
*xywh-#12:417,1809,2256,658	*xywh-#12:417,1809,2256,658	*	*xywh-#12:470,1571,2189,335	*	*
(4G\	(4g/	.	4g/	.	.
4d\)	4dd\)	.	([2dd^\	.	.
4E 4EE/	[4g [>4d 4B-X/	.	.	.	.
=113	=113	=113	=113	=113	=113
*	*^	*	*	*	*
*	*	*xywh-#12:417,1809,2256,658	*	*	*	*
2.E 2.AA/	4g] 4d/]	2.A\	.	4dd\]	.	.
.	(<8c#X/L	.	.	(8cc#X\L	.	.
.	8Bn/J)	.	.	8bn\J))	.	.
.	4c#/	.	.	4cc#\	.	.
*	*v	*v	*	*	*	*
=114||	=114||	=114||	=114||	=114||	=114||
*k[b-]	*k[b-]	*	*k[b-]	*	*
!	!	!	!LO:MO:mod=!LO&colon;TX&colon;a&colon;B&colon;t=Tempo I.°	!	!
!	!	!	!null	!	!
!	!LO:TX:a:B:t=Tempo I.°	!LO:DY:rj	!	!	!
4D 4AA 4DD\	4d 4A< 4F</	pp	4d/	.	pp
!	!	!	!LO:MO:mod=!	!	!
!	!	!	!LO:TX:a:B:t=Tempo I.°	!	!
!	!	!	!LO:TX:b:i:t=sur la touche	!	!
.	.	.	(>8qd/	.	.
2D 2BB- 2DD^<\	2d 2G#X< 2F<^/	.	4ddo<^^\)	3	.
.	.	.	8r	.	.
.	.	.	8b-\	.	.
=115	=115	=115	=115	=115	=115
4D 4AA 4DD\	4d 4A< 4F</	.	8a/L	.	.
.	.	.	16r	.	.
!	!	!	!LO:TX:b:i:t=du talon	!	!
.	.	.	16a/Jk	4	.
4D 4AA 4DD\	4d 4A< 4F</	.	4f#X/	.	.
4D 4AA 4DD\	4d 4A< 4F</	.	4a/	.	.
!!LO:LB:g=original
=116	=116	=116	=116	=116	=116
*xywh-#12:457,2722,2216,649	*xywh-#12:457,2722,2216,649	*	*xywh-#12:479,2453,2184,349	*	*
4D 4AA 4DD\	4d 4A< 4F</	.	4d/	.	.
.	.	.	((8qd/	.	.
2D 2BB- 2DD^<\	2d 2G#X< 2F<^>/	.	8ee/L)	.	.
.	.	.	8dd/)	.	.
.	.	.	8cc^/	.	.
.	.	.	8b-^/J	.	.
=117	=117	=117	=117	=117	=117
4D 4AA 4DD\	4d 4A< 4F</	.	8a/L	.	.
.	.	.	16r	.	.
.	.	.	16a/Jk	4	.
4D 4AA 4DD\	4d 4A< 4F</	.	4f/	.	.
4D 4AA 4DD\	4f 4d 4A</	.	4a/	2	.
=118	=118	=118	=118	=118	=118
.	.	.	(8qa/	.	.
*	*	*	*	*above	*
8C 8EE\	8g 8c< 8B-</	.	8cc^\)	2	.
8r	8r	.	8r	.	.
2C 2FF\	2f 2c< 2A</	.	4a^>/	.	.
.	.	.	8r	.	.
.	.	.	(8ao</	.	.
=119	=119	=119	=119	=119	=119
8C#X 8CC#X/	8a 8g 8e 8A/	.	8ee\)	2	.
8r	8r	.	8r	.	.
2D 2DD/	2a 2f 2d 2A/	.	(2ff^<\	2	>
.	.	.	8qee-X/)	.	.
=120	=120	=120	=120	=120	=120
8G 8GG/	8b- 8e-X 8B-/	.	8ee-X\	.	.
8r	8r	.	8r	.	.
2G 2AA/	[2a 2c#X 2A/	.	2cc#X^^\	4	]
!!LO:PB:g=original
=121	=121	=121	=121	=121	=121
*xywh-#13:427,911,2213,631	*xywh-#13:427,911,2213,631	*	*xywh-#13:431,639,2142,364	*	*
8F 8D\	4a] 4d 4A/	.	8dd\	.	.
8r	.	.	8r	.	.
*	*	*	*	*below	*
4DD/	4r	.	4do</	4	.
4r	4r	.	4r	.	.
=122||	=122||	=122||	=122||	=122||	=122||
!	!LO:TX:a:B:t=Allegretto.	!	!LO:TX:a:B:t=Allegretto.	!	!LO:DY:rj
4FF 4FFF/	4r	f	8f 8A^^/	.	f
.	.	.	8r	.	.
4r	4a 4f 4c 4A/	.	4ff 4a\	.	.
4r	4a 4f 4c 4A/	.	8r	.	.
.	.	.	(8ee 8cc\	.	.
=123	=123	=123	=123	=123	=123
4BB- 4BBB-/	4r	.	8ddL 8b-\)	.	.
.	.	.	16r	.	.
.	.	.	(16ddJk 16b-\	.	.
4r	4b- 4g 4d 4B-/	.	4b- 4g/)	.	.
4r	4b- 4g 4d 4B-/	.	4dd 4f/	.	.
=124	=124	=124	=124	=124	=124
4C 4CC/	4r	.	8eL [8B-/	.	.
.	.	.	8gJ 8B-/]	.	.
4r	4b- 4g 4e 4B-/	.	(8ddL 8e^/	.	.
.	.	.	8eJ 8B-/)	.	.
4r	4b- 4g 4e 4B-/	.	(8ddL 8e^/	.	.
.	.	.	8eJ 8B-/)	.	.
=125	=125	=125	=125	=125	=125
4F 4FF/	4r	.	8ddL 8f 8A/	.	.
.	.	.	16r	.	.
.	.	.	16dd/Jk	.	.
4r	4a 4f 4c 4A/	.	4cc\	.	.
4r	4a 4f 4c 4A/	.	4a/	.	.
!!LO:LB:g=original
=126	=126	=126	=126	=126	=126
*xywh-#13:404,1804,2217,586	*xywh-#13:404,1804,2217,586	*	*xywh-#13:458,1551,2155,302	*	*
4FF 4FFF/	4r	.	(16fKL 16A/	.	.
.	.	.	8ffJ 8a/)	.	.
.	.	.	16r	.	.
4r	4a 4f 4c#X 4A/	.	4.ff 4.a\	.	.
4r	4a 4f 4c# 4A/	.	.	.	.
.	.	.	(8ee 8cc#X\	.	.
=127	=127	=127	=127	=127	=127
4BB- 4BBB-/	4r	.	8ggL 8ee\)	.	.
.	.	.	16r	.	.
.	.	.	16ffJk 16dd\	.	.
4r	4b- 4g 4d 4B-/	.	4ee 4ccn\	.	.
4r	4b- 4g 4d 4B-/	.	4dd 4b-\	.	.
=128	=128	=128	=128	=128	=128
4C 4CC/	4r	.	8eL [8B-/	.	.
.	.	.	8gJ 8B-/]	.	.
4r	4b- 4g 4e 4B-/	.	(8ddL 8e^/	.	.
.	.	.	8eJ 8B-/)	.	.
4r	4b- 4g 4e 4B-/	.	(8ddL 8e^/	.	.
.	.	.	8eJ 8B-/)	.	.
=129	=129	=129	=129	=129	=129
4F 4FF/	4r	.	8ddL 8f 8A/	.	.
.	.	.	16r	.	.
.	.	.	16ddu</Jk	.	.
4r	4a 4f 4c 4A/	.	4cc\	.	.
4r	4a 4f 4c 4A/	.	4a/	.	.
=130	=130	=130	=130	=130	=130
*	*^	*	*	*	*
*	*	*xywh-#13:404,1804,2217,586	*	*	*	*
!	!	!	!	!LO:MO:mod=!LO&colon;TX&colon;b&colon;i&colon;t=viguroso	!	!
!	!	!	!	!LO:TX:a:B:t=Viguroso.	!	!
.	.	.	.	(8qff#X/	.	.
!	!	!	!	!	!	!LO:MO:null:mod=!LO&colon;DY&colon;ed=brack
!	!	!	!	!	!	!
!	!	!	!	!	!	!LO:MO:null:mod=ff
8E 8EE^/	8a 8e 8c#/	4ryy	ff	8eeo 8a^^\)	.	.
8r	8r	.	.	8r	.	.
4d 4E\	(4.bn/	2g#X 2e\	.	(4.ee 4.bn^\	.	.
4d 4E\	.	.	.	.	.	.
.	8cc#X/)	.	.	8ee 8cc#X\)	.	.
!!LO:LB:g=original
=131	=131	=131	=131	=131	=131	=131
*xywh-#13:404,2675,2195,551	*xywh-#13:404,2675,2195,551	*xywh-#13:404,2675,2195,551	*	*xywh-#13:449,2395,2168,328	*	*
.	.	.	.	(8qff#X/	.	.
4c#X 4E\	8a/L	2.a 2.e\	.	8eeL 8a\)	.	.
.	8cc#X/J	.	.	8eeJ 8cc#X\	.	.
4c# 4E\	4ee/	.	.	4ee\ 4ee	.	.
4c# 4E\	4ee/	.	.	4ee\ 4ee	.	.
=132	=132	=132	=132	=132	=132	=132
.	.	.	.	(8qff#X/	.	.
8E 8EE/	8a/	8e 8c#X\	.	8ee 8a\)	.	.
8r	8r	8r	.	8r	.	.
4d 4E\	(4.bn/	2g#X 2e\	.	(4.ee 4.bn\	.	.
4d 4E\	.	.	.	.	.	.
.	8cc#X/)	.	.	8ee 8cc#X\)	.	.
*	*v	*v	*	*	*	*
=133	=133	=133	=133	=133	=133
.	.	.	(8qff#X/	.	.
4c#X 4E\	8aL 8e/	.	8eeL 8a\)	.	.
.	8f#X/J	.	8eeJ 8f#X\	.	.
4c# 4E\	4e/	.	4ee 4e\	.	.
4c# 4E\	4e/	.	4ee 4e\	.	.
=134	=134	=134	=134	=134	=134
*	*^	*	*	*	*
*	*	*xywh-#13:404,2675,2195,551	*	*	*	*
!	!	!	!	!LO:TX:b:i:t=sons harmoniques	!	!
.	(<8qff#X/	.	p	.	.	.
!	!	!	!	!LO:N:n=2:vis=2	!	!
8E 8EE/	2.ee/)	4a\	.	8aaa 8rdd 8ra\	.	.
8r	.	.	.	8r	.	.
!	!	!	!	!LO:N:n=2:vis=2	!	!
4e 4d 4G#X\	.	(4.bn\	.	(4.bbbn (4.ree (4.rbn\	.	.
4e 4d 4G#\	.	.	.	.	.	.
!	!	!	!	!LO:N:n=2:vis=2	!	!
.	.	8cc#X\)	.	8cccc#X) 8rff#X) 8rcc#X\)	.	.
*	*v	*v	*	*	*	*
=135	=135	=135	=135	=135	=135
.	(8qff#X/	.	.	.	.
!	!	!	!LO:N:n=2:vis=2	!	!
4e 4c#X 4A\	4ee 4a\)	.	8aaaL 8rdd 8ra\	.	.
!	!	!	!LO:N:n=2:vis=2	!	!
.	.	.	8cccc#XJ 8rff#X 8rcc#X\	.	.
!	!	!	!LO:N:n=2:vis=2	!	!
4r	4r	.	4eeee 4raa 4ree\	.	.
!	!	!	!LO:N:n=2:vis=2	!	!
4r	4r	.	[4eeee [4raa [4ree\	.	.
!!LO:PB:g=original
=136	=136	=136	=136	=136	=136
*xywh-#14:403,889,2350,679	*xywh-#14:403,889,2350,679	*	*xywh-#14:501,616,2145,406	*	*
8A\L	8a\L	p	2.eeee] 2.raa] 2.ree\]	.	.
8c#X\J	8cc#X\J	.	.	.	.
4e\	4ee\	.	.	.	.
4e\	4ee\	.	.	.	.
=137	=137	=137	=137	=137	=137
!	!	!	!LO:TX:b:t=sul A_:dur=6q:ext=ud:problem:text with extention lines:mod=	!	!
!	!	!	!LO:N:n=2:vis=2	!	!
2.r	2.r	.	8aaaL 8rdd 8ra\	.	.
!	!	!	!LO:N:n=2:vis=2	!	!
.	.	.	8ccccJ 8rff#X 8rcc#X\	.	.
!	!	!	!LO:N:n=2:vis=2	!	!
.	.	.	4ffffn 4rbb-X 4rffn\	.	.
!	!	!	!LO:N:n=2:vis=2	!	!
.	.	.	[4ffff [4rbb- [4rff\	.	.
=138	=138	=138	=138	=138	=138
*^	*	*	*	*	*
*	*xywh-#14:403,889,2350,679	*	*	*	*	*
!	!LO:TX:b:i:t=rall.	!LO:TX:a:i:t=rall.	!	!LO:TX:b:i:t=rall.	!	!
8A/L	2A\	8a\L	.	2ffff] 2rbb-X] 2rff\]	.	.
8c#X/J	.	8cc#X\J	.	.	.	.
4ryy	.	4aa 4a\	.	.	.	.
!	!	!	!	!LO:N:n=2:vis=2	!	!
4AA/	4AA/yy	4cc#X 4g 4c#X/	.	4eeee 4raa 4ree\	.	.
*v	*v	*	*	*	*	*
=139	=139	=139	=139	=139	=139
!	!LO:TX:a:B:t=Tempo I.°	!	!LO:TX:a:B:t=Tempo I.°	!	!
4D/	4dd 4a 4f/	pp	4d/	.	pp
.	.	.	(>8qd/	.	.
2BB- 2DD^<\	2d 2G#X< 2F<^>/	.	4ddo<\)	3	.
.	.	.	8r	.	.
.	.	.	8b-\	.	.
!!LO:LB:g=original
=140	=140	=140	=140	=140	=140
*xywh-#14:456,1805,2265,652	*xywh-#14:456,1805,2265,652	*	*xywh-#14:479,1555,2189,344	*	*
4AA 4DD\	4d 4A< 4F</	.	8a/L	.	.
.	.	.	16r	.	.
!	!	!	!LO:TX:b:i:t=du talon	!	!
.	.	.	16a/Jk	4	.
4AA 4DD\	4d 4A< 4F</	.	4f/	.	.
4AA 4DD\	4d 4A< 4F</	.	4a/	.	.
=141	=141	=141	=141	=141	=141
4AA 4DD\	4d 4A< 4F</	.	4d/	.	.
.	.	.	(8qd/	.	.
2BB- 2DD^<\	2d 2G#X< 2F<^>/	.	8ee/L	.	.
.	.	.	8dd/)	.	.
.	.	.	8cc^/	.	.
.	.	.	8b-^/J	.	.
=142	=142	=142	=142	=142	=142
4AA 4DD\	4d 4A< 4F</	.	8a/L	.	.
!	!	!	!LO:TX:b:t=cresc_:problem:dynamics with extention lines:mod=	!	!LO:HP:t=cresc.
.	.	.	16r	.	<
.	.	.	16a/Jk	.	.
4AA 4DD\	4d 4A< 4F</	.	4f/	.	.
4AA 4DD\	4f 4d 4A</	.	4a/	.	.
=143	=143	=143	=143	=143	=143
8C 8EE\	8g 8c< 8B-</	.	8ccc 8cc\	.	.
8r	8r	.	8r	.	.
2C 2FF\	2a 2c< 2A</	.	2aa 2a\	.	.
!!LO:LB:g=original
=144	=144	=144	=144	=144	=144
*xywh-#14:452,2672,2310,665	*xywh-#14:452,2672,2310,665	*	*xywh-#14:510,2422,2136,317	*	*
8C#X 8CC#X/	8a 8g 8e 8A/	.	8eee 8ee\	.	.
8r	8r	.	8r	.	.
!	!	!	!LO:MO:mod=!null:null	!	!
!	!	!	!LO:N:vis=2	!	!
2D 2DD/	2a 2f 2d 2A/	.	(4.fff 4.ff^^\	.	.
.	.	.	8eee 8ee\)	.	[[
=145	=145	=145	=145	=145	=145
!	!	!	!LO:TX:b:i:t=ritard.	!	!
4GG 4GGG/	4r	.	(16eeeLL 16ee\	.	.
.	.	.	16fff 16ff\)	.	.
.	.	.	16ggg 16gg\	.	.
.	.	.	16aaaJJ 16aa\	.	.
4G 4En 4GG;\	4b- 4en 4B-;/	.	4.bbb- 4.bb-;\	.	.
4G 4E 4AA;\	[4a 4e 4c#X 4A;/	.	.	.	.
.	.	.	8ccc#X 8cc#X;\	.	.
=146	=146	=146	=146	=146	=146
4F 4D\	4a] 4f 4d 4A/	.	4ddd 4dd\	.	.
4D 4AA 4DD/	4ddd 4aa 4ff 4dd\	.	4d/ 4d	.	.
4r	4r	.	4r	.	.
==	==	==	==	==	==
*-	*-	*-	*-	*-	*-
!!!system-decoration: s1{(s2,s3)}
!!!RDF**kern: > = above
!!!RDF**kern: < = below
!!!filter-modern: autostem -r | shed -e "s/LO:DY:(a|b|rj)/LO:dy:$1/L" | shed -k -e “s/([()[]_])[><]/$1/g” | shed -k -e “s/([^a-gA-Gn#X-])[<>]/$1/g” | modori -m |
!!!ENC: Marta Opryszak
!!!END: 2022-05-12
!!!ENC: Marta Lawrence
!!!END: 2022-05-23
!!!ENC-modern: Leszek Kubiak
!!!END-modern: 2022-07-20
!!!IIIF: https://polona.pl/iiif/item/MjQwNTYxNzY/manifest.json
!!!ENC-iiif: Mateusz Mrugas
!!!END-iiif: 2022-08-31
!!!YEC: Copyright 2022 Narodowy Instytut Fryderyka Chopina (https://polishscores.org)
!!!YEM: License CC-BY-4.0 (https://creativecommons.org/licenses/by/4.0)
